svgs/light/outdent.svg

<svg xmlns="http://www.w3.org/2000/svg" viewBox="0 0 448 512"><!-- Font Awesome Pro 6.0.0-alpha2 by @fontawesome - https://fontawesome.com License - https://fontawesome.com/license (Commercial License) --><path d="M118.781 161.5C116.625 160.5 114.312 160 112 160C108.312 160 104.688 161.25 101.75 163.719L5.75 243.727C2.094 246.759 0 251.259 0 256.01C0 260.76 2.094 265.261 5.75 268.292L101.75 348.3C104.686 350.758 108.316 352 111.984 352C114.289 352 116.609 351.508 118.781 350.519C124.406 347.863 128 342.237 128 336.018V176.002C128 169.782 124.406 164.157 118.781 161.5ZM96 301.85L40.998 256.01L96 210.169V301.85ZM16 80H432C440.844 80 448 72.844 448 64S440.844 48 432 48H16C7.156 48 0 55.156 0 64S7.156 80 16 80ZM432 176H208C199.156 176 192 183.156 192 192S199.156 208 208 208H432C440.844 208 448 200.844 448 192S440.844 176 432 176ZM432 304H208C199.156 304 192 311.156 192 320S199.156 336 208 336H432C440.844 336 448 328.844 448 320S440.844 304 432 304ZM432 432H16C7.156 432 0 439.156 0 448S7.156 464 16 464H432C440.844 464 448 456.844 448 448S440.844 432 432 432Z"/></svg>

<svg xmlns="http://www.w3.org/2000/svg" viewBox="0 0 448 512"><!--! Font Awesome Pro 6.4.0 by @fontawesome - https://fontawesome.com License - https://fontawesome.com/license (Commercial License) Copyright 2023 Fonticons, Inc. --><path d="M0 64c0 8.8 7.2 16 16 16H432c8.8 0 16-7.2 16-16s-7.2-16-16-16H16C7.2 48 0 55.2 0 64zM192 192c0 8.8 7.2 16 16 16H432c8.8 0 16-7.2 16-16s-7.2-16-16-16H208c-8.8 0-16 7.2-16 16zm16 112c-8.8 0-16 7.2-16 16s7.2 16 16 16H432c8.8 0 16-7.2 16-16s-7.2-16-16-16H208zM0 448c0 8.8 7.2 16 16 16H432c8.8 0 16-7.2 16-16s-7.2-16-16-16H16c-8.8 0-16 7.2-16 16zM96 211.8v88.4L42.3 256 96 211.8zM7 243.6C-.8 250-.8 262 7 268.4l94.8 78.1c10.4 8.6 26.2 1.2 26.2-12.4V177.9c0-13.5-15.7-20.9-26.2-12.4L7 243.6z"/></svg>
